icons/circle/48/xsensors.svg

<svg xmlns="http://www.w3.org/2000/svg" viewBox="0 0 48 48">
  <defs>
    <linearGradient id="a" x1="1" x2="47" gradientUnits="userSpaceOnUse" gradientTransform="rotate(-90 24 24)">
      <stop stop-color="#436769"/>
      <stop offset="1" stop-color="#4b7376"/>
    </linearGradient>
  </defs>
  <path d="M36.31 5c5.859 4.062 9.688 10.831 9.688 18.5 0 12.426-10.07 22.5-22.5 22.5-7.669 0-14.438-3.828-18.5-9.688a23.24 23.24 0 0 0 3.781 4.969 22.923 22.923 0 0 0 15.469 5.969c12.703 0 23-10.298 23-23a22.92 22.92 0 0 0-5.969-15.469A23.216 23.216 0 0 0 36.31 5zm4.969 3.781A22.911 22.911 0 0 1 47.498 24.5c0 12.703-10.297 23-23 23a22.909 22.909 0 0 1-15.719-6.219C12.939 45.425 18.662 48 24.998 48c12.703 0 23-10.298 23-23 0-6.335-2.575-12.06-6.719-16.219z" opacity=".05"/>
  <path d="M41.28 8.781a22.923 22.923 0 0 1 5.969 15.469c0 12.703-10.297 23-23 23A22.92 22.92 0 0 1 8.78 41.281 22.911 22.911 0 0 0 24.499 47.5c12.703 0 23-10.298 23-23A22.909 22.909 0 0 0 41.28 8.781z" opacity=".1"/>
  <path d="M31.25 2.375C39.865 5.529 46 13.792 46 23.505c0 12.426-10.07 22.5-22.5 22.5-9.708 0-17.971-6.135-21.12-14.75a23 23 0 0 0 44.875-7 23 23 0 0 0-16-21.875z" opacity=".2"/>
  <path d="M24 1c12.703 0 23 10.297 23 23S36.703 47 24 47 1 36.703 1 24 11.297 1 24 1z" fill="url(#a)"/>
  <path d="M25 10a15 15 0 0 0-15 15 15 15 0 0 0 15 15 15 15 0 0 0 15-15 15 15 0 0 0-15-15m0 2a13 13 0 0 1 8.129 2.871l-2.135 2.135A10 10 0 0 0 25 15a10 10 0 0 0-5.99 2.01l-2.145-2.145A13 13 0 0 1 25 12m10.135 4.865A13 13 0 0 1 38 25a13 13 0 0 1-2.87 8.13l-2.136-2.138A10 10 0 0 0 35 25a10 10 0 0 0-2.008-5.99l2.143-2.143zm-20.264.006l2.135 2.135A10 10 0 0 0 15 25a10 10 0 0 0 2.01 5.99l-2.145 2.145A13 13 0 0 1 12 25a13 13 0 0 1 2.871-8.129M25 17a8 8 0 0 1 4.566 1.434l-2.18 2.18A5 5 0 0 0 25 20a5 5 0 0 0-2.391.609l-2.17-2.17A8 8 0 0 1 25 17m-6.566 3.434l2.18 2.18A5 5 0 0 0 20 25a5 5 0 0 0 .609 2.391l-2.171 2.17A8 8 0 0 1 17 25a8 8 0 0 1 1.434-4.566m13.13.006A8 8 0 0 1 33 25a8 8 0 0 1-1.434 4.566l-2.179-2.179A5 5 0 0 0 30 25a5 5 0 0 0-.609-2.391l2.17-2.17zM25 23l1.998 2L25 27l-2-2 2-2m-2.387 6.387A5 5 0 0 0 25 30a5 5 0 0 0 2.391-.609l2.172 2.17A8 8 0 0 1 25 33a8 8 0 0 1-4.566-1.434l2.18-2.18zm8.379 3.604l2.145 2.145A13 13 0 0 1 25 38a13 13 0 0 1-8.131-2.87l2.137-2.137A10 10 0 0 0 25 35a10 10 0 0 0 5.992-2.01" opacity=".1"/>
  <path d="M24 9A15 15 0 0 0 9 24a15 15 0 0 0 15 15 15 15 0 0 0 15-15A15 15 0 0 0 24 9zm0 2a13 13 0 0 1 13 13 13 13 0 0 1-13 13 13 13 0 0 1-13-13 13 13 0 0 1 13-13zm0 3a10 10 0 0 0-10 10 10 10 0 0 0 10 10 10 10 0 0 0 10-10 10 10 0 0 0-10-10zm0 2a8 8 0 0 1 8 8 8 8 0 0 1-8 8 8 8 0 0 1-8-8 8 8 0 0 1 8-8zm0 3a5 5 0 0 0-5 5 5 5 0 0 0 5 5 5 5 0 0 0 5-5 5 5 0 0 0-5-5zm0 3l2 2-2 2-2-2 2-2z" fill="#f9f9f9"/>
  <path d="M40.03 7.531A22.922 22.922 0 0 1 45.999 23c0 12.703-10.297 23-23 23A22.92 22.92 0 0 1 7.53 40.031C11.708 44.322 17.54 47 23.999 47c12.703 0 23-10.298 23-23 0-6.462-2.677-12.291-6.969-16.469z" opacity=".1"/>
  <path d="M14.746 13.33c-.361 0-.723.139-1 .416a1.411 1.411 0 0 0 0 2L22 24l2-2-8.254-8.254a1.411 1.411 0 0 0-1-.416zM25.998 24L24 26l8.254 8.252a1.411 1.411 0 0 0 2 0 1.411 1.411 0 0 0 0-2z" fill="#f95357"/>
  <path d="M33.25 13.33c-.361 0-.723.139-1 .416L23.996 22l2 2 8.254-8.254a1.411 1.411 0 0 0 0-2 1.411 1.411 0 0 0-1-.416zM21.996 24l-8.254 8.252a1.411 1.411 0 0 0 0 2 1.411 1.411 0 0 0 2 0L23.996 26" fill="#45da26"/>
</svg>

<svg xmlns="http://www.w3.org/2000/svg" viewBox="0 0 48 48">
 <defs>
  <linearGradient id="linearGradient3764" x1="1" x2="47" gradientUnits="userSpaceOnUse" gradientTransform="matrix(0,-1,1,0,-1.5e-6,47.999998)">
   <stop style="stop-color:#436769;stop-opacity:1"/>
   <stop offset="1" style="stop-color:#4b7376;stop-opacity:1"/>
  </linearGradient>
 </defs>
 <g>
  <path d="m 36.31 5 c 5.859 4.062 9.688 10.831 9.688 18.5 c 0 12.426 -10.07 22.5 -22.5 22.5 c -7.669 0 -14.438 -3.828 -18.5 -9.688 c 1.037 1.822 2.306 3.499 3.781 4.969 c 4.085 3.712 9.514 5.969 15.469 5.969 c 12.703 0 23 -10.298 23 -23 c 0 -5.954 -2.256 -11.384 -5.969 -15.469 c -1.469 -1.475 -3.147 -2.744 -4.969 -3.781 z m 4.969 3.781 c 3.854 4.113 6.219 9.637 6.219 15.719 c 0 12.703 -10.297 23 -23 23 c -6.081 0 -11.606 -2.364 -15.719 -6.219 c 4.16 4.144 9.883 6.719 16.219 6.719 c 12.703 0 23 -10.298 23 -23 c 0 -6.335 -2.575 -12.06 -6.719 -16.219 z" style="opacity:0.05"/>
  <path d="m 41.28 8.781 c 3.712 4.085 5.969 9.514 5.969 15.469 c 0 12.703 -10.297 23 -23 23 c -5.954 0 -11.384 -2.256 -15.469 -5.969 c 4.113 3.854 9.637 6.219 15.719 6.219 c 12.703 0 23 -10.298 23 -23 c 0 -6.081 -2.364 -11.606 -6.219 -15.719 z" style="opacity:0.1"/>
  <path d="m 31.25 2.375 c 8.615 3.154 14.75 11.417 14.75 21.13 c 0 12.426 -10.07 22.5 -22.5 22.5 c -9.708 0 -17.971 -6.135 -21.12 -14.75 a 23 23 0 0 0 44.875 -7 a 23 23 0 0 0 -16 -21.875 z" style="opacity:0.2"/>
 </g>
 <g>
  <path d="m 24 1 c 12.703 0 23 10.297 23 23 c 0 12.703 -10.297 23 -23 23 -12.703 0 -23 -10.297 -23 -23 0 -12.703 10.297 -23 23 -23 z" style="fill:url(#linearGradient3764);fill-opacity:1"/>
 </g>
 <path d="M 25 10 A 15 15 0 0 0 10 25 15 15 0 0 0 25 40 15 15 0 0 0 40 25 15 15 0 0 0 25 10 m 0 2 a 13 13 0 0 1 8.129 2.871 l -2.135 2.135 A 10 10 0 0 0 25 15 10 10 0 0 0 19.01 17.01 L 16.865 14.865 A 13 13 0 0 1 25 12 m 10.135 4.865 A 13 13 0 0 1 38 25 13 13 0 0 1 35.13 33.13 L 32.994 30.992 A 10 10 0 0 0 35 25 10 10 0 0 0 32.992 19.01 l 2.143 -2.143 z m -20.264 0.006 2.135 2.135 A 10 10 0 0 0 15 25 a 10 10 0 0 0 2.01 5.99 l -2.145 2.145 A 13 13 0 0 1 12 25 13 13 0 0 1 14.871 16.871 M 25 17 a 8 8 0 0 1 4.566 1.434 l -2.18 2.18 A 5 5 0 0 0 25 20 5 5 0 0 0 22.609 20.609 L 20.439 18.439 A 8 8 0 0 1 25 17 m -6.566 3.434 2.18 2.18 A 5 5 0 0 0 20 25 5 5 0 0 0 20.609 27.391 L 18.438 29.561 A 8 8 0 0 1 17 25 8 8 0 0 1 18.434 20.434 m 13.13 0.006 A 8 8 0 0 1 33 25 8 8 0 0 1 31.566 29.566 L 29.387 27.387 A 5 5 0 0 0 30 25 5 5 0 0 0 29.391 22.609 l 2.17 -2.17 z M 25 23 26.998 25 25 27 23 25 25 23 m -2.387 6.387 A 5 5 0 0 0 25 30 5 5 0 0 0 27.391 29.391 L 29.563 31.561 A 8 8 0 0 1 25 33 8 8 0 0 1 20.434 31.566 l 2.18 -2.18 z m 8.379 3.604 2.145 2.145 A 13 13 0 0 1 25 38 13 13 0 0 1 16.869 35.13 l 2.137 -2.137 A 10 10 0 0 0 25 35 10 10 0 0 0 30.992 32.99" style="fill:#000;opacity:0.1;fill-opacity:1;stroke:none"/>
 <path d="M 24 9 A 15 15 0 0 0 9 24 A 15 15 0 0 0 24 39 A 15 15 0 0 0 39 24 A 15 15 0 0 0 24 9 z M 24 11 A 13 13 0 0 1 37 24 A 13 13 0 0 1 24 37 A 13 13 0 0 1 11 24 A 13 13 0 0 1 24 11 z M 24 14 A 10 10 0 0 0 14 24 A 10 10 0 0 0 24 34 A 10 10 0 0 0 34 24 A 10 10 0 0 0 24 14 z M 24 16 A 8 8 0 0 1 32 24 A 8 8 0 0 1 24 32 A 8 8 0 0 1 16 24 A 8 8 0 0 1 24 16 z M 24 19 A 5 5 0 0 0 19 24 A 5 5 0 0 0 24 29 A 5 5 0 0 0 29 24 A 5 5 0 0 0 24 19 z M 24 22 L 26 24 L 24 26 L 22 24 L 24 22 z" style="fill:#f9f9f9;opacity:1;fill-opacity:1;stroke:none"/>
 <g>
  <g>
   <!-- color: #4b7376 -->
  </g>
 </g>
 <g>
  <path d="m 40.03 7.531 c 3.712 4.084 5.969 9.514 5.969 15.469 0 12.703 -10.297 23 -23 23 c -5.954 0 -11.384 -2.256 -15.469 -5.969 4.178 4.291 10.01 6.969 16.469 6.969 c 12.703 0 23 -10.298 23 -23 0 -6.462 -2.677 -12.291 -6.969 -16.469 z" style="opacity:0.1"/>
 </g>
 <path d="m 14.746 13.33 c -0.361 0 -0.723 0.139 -1 0.416 -0.554 0.554 -0.554 1.446 0 2 l 8.254 8.254 2 -2 -8.254 -8.254 c -0.277 -0.277 -0.639 -0.416 -1 -0.416 z m 11.252 10.67 -1.998 2 l 8.254 8.252 c 0.554 0.554 1.446 0.554 2 0 0.554 -0.554 0.554 -1.446 0 -2 z" style="fill:#f95357;opacity:1;fill-opacity:1;stroke:none"/>
 <path d="m 33.25 13.33 c -0.361 0 -0.723 0.139 -1 0.416 l -8.254 8.254 l 2 2 8.254 -8.254 c 0.554 -0.554 0.554 -1.446 0 -2 -0.277 -0.277 -0.639 -0.416 -1 -0.416 z m -11.254 10.67 -8.254 8.252 c -0.554 0.554 -0.554 1.446 0 2 0.554 0.554 1.446 0.554 2 0 l 8.254 -8.252" style="fill:#45da26;opacity:1;fill-opacity:1;stroke:none"/>
</svg>
